Newaita-dark/actions/symbolic/media-playlist-shuffle-symbolic.svg

<svg height="16" viewBox="0 0 16 16" width="16" xmlns="http://www.w3.org/2000/svg"><g fill="#e0e0e0"><path d="m11.578125 2.109375-2.316406 2.644531h1.324219c0 .828125-.058594 1.40625-.265626 1.6875-.203124.28125-.714843.628906-2.382812.628906-1.96875 0-3.28125.480469-3.984375 1.441407-.703125.957031-.644531 2.03125-.644531 2.859375v1.984375c0 .367187.292968.660156.660156.660156h.660156c.367188 0 .664063-.292969.664063-.660156v-1.984375c0-.828125.054687-1.40625.261719-1.6875.207031-.28125.714843-.628906 2.382812-.628906 1.96875 0 3.28125-.480469 3.984375-1.4375.703125-.960938.648437-2.035157.648437-2.863282h1.320313zm0 0"/><path d="m4.300781 2.109375-2.316406 2.644531h1.324219c0 .828125-.058594 1.902344.644531 2.863282.054687.074218.113281.144531.175781.214843.53125-.472656 1.246094-.785156 2.128906-.949219-.402343-.125-.59375-.292968-.703124-.441406-.207032-.28125-.261719-.859375-.261719-1.6875h1.320312zm5.335938 5.109375c-.398438.113281-.9375.183594-1.699219.183594-1.554688 0-2.625.300781-3.304688.867187.425782.296875.960938.507813 1.605469.636719.398438-.113281.9375-.179688 1.699219-.179688 1.554688 0 2.628906-.304687 3.308594-.871093-.429688-.292969-.960938-.507813-1.609375-.636719zm2.109375 1.078125c-.53125.46875-1.242188.785156-2.125.949219.398437.125.59375.289062.699218.4375.207032.28125.265626.859375.265626 1.6875v1.984375c0 .367187.292968.660156.660156.660156h.660156c.367188 0 .664062-.292969.664062-.660156v-1.984375c0-.828125.054688-1.902344-.648437-2.859375-.054687-.074219-.113281-.148438-.175781-.214844zm0 0"/></g></svg>

<?xml version="1.0" encoding="UTF-8"?>
<svg xmlns="http://www.w3.org/2000/svg" xmlns:xlink="http://www.w3.org/1999/xlink" width="16px" height="16px" viewBox="0 0 16 16" version="1.1">
<g id="surface1">
<path style=" stroke:none;fill-rule:nonzero;fill:rgb(87.843138%,87.843138%,87.843138%);fill-opacity:1;" d="M 11.578125 2.109375 L 9.261719 4.753906 L 10.585938 4.753906 C 10.585938 5.582031 10.527344 6.160156 10.320312 6.441406 C 10.117188 6.722656 9.605469 7.070312 7.9375 7.070312 C 5.96875 7.070312 4.65625 7.550781 3.953125 8.511719 C 3.25 9.46875 3.308594 10.542969 3.308594 11.371094 L 3.308594 13.355469 C 3.308594 13.722656 3.601562 14.015625 3.96875 14.015625 L 4.628906 14.015625 C 4.996094 14.015625 5.292969 13.722656 5.292969 13.355469 L 5.292969 11.371094 C 5.292969 10.542969 5.347656 9.964844 5.554688 9.683594 C 5.761719 9.402344 6.269531 9.054688 7.9375 9.054688 C 9.90625 9.054688 11.21875 8.574219 11.921875 7.617188 C 12.625 6.65625 12.570312 5.582031 12.570312 4.753906 L 13.890625 4.753906 Z M 11.578125 2.109375 "/>
<path style=" stroke:none;fill-rule:nonzero;fill:rgb(87.843138%,87.843138%,87.843138%);fill-opacity:1;" d="M 4.300781 2.109375 L 1.984375 4.753906 L 3.308594 4.753906 C 3.308594 5.582031 3.25 6.65625 3.953125 7.617188 C 4.007812 7.691406 4.066406 7.761719 4.128906 7.832031 C 4.660156 7.359375 5.375 7.046875 6.257812 6.882812 C 5.855469 6.757812 5.664062 6.589844 5.554688 6.441406 C 5.347656 6.160156 5.292969 5.582031 5.292969 4.753906 L 6.613281 4.753906 Z M 9.636719 7.21875 C 9.238281 7.332031 8.699219 7.402344 7.9375 7.402344 C 6.382812 7.402344 5.3125 7.703125 4.632812 8.269531 C 5.058594 8.566406 5.59375 8.777344 6.238281 8.90625 C 6.636719 8.792969 7.175781 8.726562 7.9375 8.726562 C 9.492188 8.726562 10.566406 8.421875 11.246094 7.855469 C 10.816406 7.5625 10.285156 7.347656 9.636719 7.21875 Z M 11.746094 8.296875 C 11.214844 8.765625 10.503906 9.082031 9.621094 9.246094 C 10.019531 9.371094 10.214844 9.535156 10.320312 9.683594 C 10.527344 9.964844 10.585938 10.542969 10.585938 11.371094 L 10.585938 13.355469 C 10.585938 13.722656 10.878906 14.015625 11.246094 14.015625 L 11.90625 14.015625 C 12.273438 14.015625 12.570312 13.722656 12.570312 13.355469 L 12.570312 11.371094 C 12.570312 10.542969 12.625 9.46875 11.921875 8.511719 C 11.867188 8.4375 11.808594 8.363281 11.746094 8.296875 Z M 11.746094 8.296875 "/>
</g>
</svg>
